public/svgs/icons/native-apps.svg

<svg fill="none" height="69" viewBox="0 0 93 69" width="93" xmlns="http://www.w3.org/2000/svg"><g stroke-miterlimit="10" stroke-width="1.5"><path d="m91.93 61h-91.18c0 1.9016.75541 3.7253 2.10004 5.07 1.34464 1.3446 3.16836 2.1 5.06996 2.1h76.83c1.9025 0 3.7273-.7551 5.0735-2.0994 1.3462-1.3444 2.1039-3.1681 2.1065-5.0706z" stroke="#ed6a5e"/><path d="m66.6799 16.1201h-55.47c-.1432 0-.2805.0569-.3818.1582-.1013.1012-.1582.2386-.1582.3818v43.77c0 .1441.0566.2825.1576.3854s.2383.162.3824.1646h70.26c.1442-.0026.2815-.0617.3825-.1646s.1575-.2413.1575-.3854v-14.15" stroke="#ed6a5e"/><path d="m89.5397.75h-20.46c-1.3255 0-2.4 1.07452-2.4 2.4v40.73c0 1.3255 1.0745 2.4 2.4 2.4h20.46c1.3255 0 2.4-1.0745 2.4-2.4v-40.73c0-1.32548-1.0745-2.4-2.4-2.4z" stroke="#bad8db"/><path d="m84.6098 6.94995h-10.6" stroke="#ed6a5e" stroke-linecap="round"/><path d="m34.5401 51.8399c7.1576 0 12.96-5.8024 12.96-12.96s-5.8024-12.96-12.96-12.96-12.96 5.8024-12.96 12.96 5.8024 12.96 12.96 12.96z" stroke="#bad8db"/></g></svg>

<svg width="93" height="69" viewBox="0 0 93 69" fill="none" xmlns="http://www.w3.org/2000/svg">
<path d="M91.93 61H0.75C0.75 62.9016 1.50541 64.7253 2.85004 66.07C4.19468 67.4146 6.0184 68.17 7.92 68.17H84.75C86.6525 68.17 88.4773 67.4149 89.8235 66.0706C91.1697 64.7262 91.9274 62.9025 91.93 61Z" stroke="#ED6A5E" stroke-width="1.5" stroke-miterlimit="10"/>
<path d="M66.6799 16.1201H11.2099C11.0667 16.1201 10.9294 16.177 10.8281 16.2783C10.7268 16.3795 10.6699 16.5169 10.6699 16.6601V60.4301C10.6699 60.5742 10.7265 60.7126 10.8275 60.8155C10.9285 60.9184 11.0658 60.9775 11.2099 60.9801H81.4699C81.6141 60.9775 81.7514 60.9184 81.8524 60.8155C81.9534 60.7126 82.0099 60.5742 82.0099 60.4301V46.2801" stroke="#ED6A5E" stroke-width="1.5" stroke-miterlimit="10"/>
<path d="M89.5397 0.75H69.0797C67.7542 0.75 66.6797 1.82452 66.6797 3.15V43.88C66.6797 45.2055 67.7542 46.28 69.0797 46.28H89.5397C90.8652 46.28 91.9397 45.2055 91.9397 43.88V3.15C91.9397 1.82452 90.8652 0.75 89.5397 0.75Z" stroke="#BAD8DB" stroke-width="1.5" stroke-miterlimit="10"/>
<path d="M84.6098 6.94995H74.0098" stroke="#ED6A5E" stroke-width="1.5" stroke-miterlimit="10" stroke-linecap="round"/>
<path d="M34.5401 51.8399C41.6977 51.8399 47.5001 46.0375 47.5001 38.8799C47.5001 31.7223 41.6977 25.9199 34.5401 25.9199C27.3825 25.9199 21.5801 31.7223 21.5801 38.8799C21.5801 46.0375 27.3825 51.8399 34.5401 51.8399Z" stroke="#BAD8DB" stroke-width="1.5" stroke-miterlimit="10"/>
</svg>
